findly-builder/apps/searchassist/src/assets/images/delete_response.svg

<svg width="12" height="13" viewBox="0 0 12 13" fill="none" xmlns="http://www.w3.org/2000/svg">
<path d="M5.5 0C4.67919 0 4.00391 0.675281 4.00391 1.49609V2H1.5C0.677469 2 0 2.67747 0 3.5V4.5C1.32584e-05 4.6326 0.0526959 4.75977 0.146461 4.85354C0.240227 4.9473 0.367396 4.99999 0.5 5H1.06055L1.9043 11.6738V11.6641C1.9878 12.4201 2.6342 13 3.39453 13H8.60547C9.3658 13 10.0122 12.4201 10.0957 11.6641V11.6738L10.9395 5H11.5C11.6326 4.99999 11.7598 4.9473 11.8535 4.85354C11.9473 4.75977 12 4.6326 12 4.5V3.5C12 2.67747 11.3225 2 10.5 2H8V1.49609C8 0.675281 7.32472 0 6.50391 0H5.5ZM5.5 1H6.50391C6.78509 1 7 1.21491 7 1.49609V2H5.00391V1.49609C5.00391 1.21491 5.21881 1 5.5 1ZM1.5 3H4.00391H5.00391H7H8H10.5C10.7815 3 11 3.21853 11 3.5V4H1V3.5C1 3.21853 1.21853 3 1.5 3ZM2.06836 5H9.93164L9.10156 11.5508V11.5547C9.07307 11.8127 8.86514 12 8.60547 12H3.39453C3.13486 12 2.92693 11.8127 2.89844 11.5547V11.5508L2.06836 5Z" fill="#DD3646"/>
</svg>

<svg width="12" height="13" fill="none" xmlns="http://www.w3.org/2000/svg"><path d="M5.5 0c-.82 0-1.496.675-1.496 1.496V2H1.5C.677 2 0 2.677 0 3.5v1a.5.5 0 0 0 .5.5h.56l.844 6.674v-.01c.084.756.73 1.336 1.49 1.336h5.211c.76 0 1.407-.58 1.49-1.336v.01L10.94 5h.56a.5.5 0 0 0 .5-.5v-1c0-.823-.678-1.5-1.5-1.5H8v-.504C8 .676 7.325 0 6.504 0H5.5Zm0 1h1.004c.281 0 .496.215.496.496V2H5.004v-.504c0-.281.215-.496.496-.496Zm-4 2h9c.281 0 .5.219.5.5V4H1v-.5c0-.281.219-.5.5-.5Zm.568 2h7.864l-.83 6.55v.005a.493.493 0 0 1-.497.445h-5.21a.493.493 0 0 1-.497-.445v-.004L2.068 5Z" fill="#DD3646"/></svg>
